X:13
T:South Wind, The
R:air
Z:id:hn-air-13
M:3/4
L:1/8
K:G
c2 | B3 A G2 | B2 c2 d2 | A3 B A2 | A4 c2 |
B3 A G2 | E3 D E2 | G6- | G4 :|
|: d2 | g4 g2 | g2 f2 e2 | d4 e2 | d4 c2 |
[1 B3 A G2 | B2 c2 d2 | A4 B2 | A4 d2 :|
[2 B3 A G2 | c3 A F2 | G6- | G4 ||
<end>
<start>
